public/wine.svg

<svg width="64" height="64" viewBox="0 0 64 64" fill="none" xmlns="http://www.w3.org/2000/svg">
<rect width="64" height="64" fill="white"/>
<path d="M23.9774 33.5645C23.9922 29.2761 25.2221 25.0798 27.5247 21.462C28.163 20.4591 28.5151 19.3009 28.5429 18.1125L28.7821 7.88127C28.7923 7.44685 29.1474 7.09998 29.5819 7.09998H33.4189C33.8534 7.09998 34.2085 7.44685 34.2187 7.88127L34.4581 18.1217C34.4858 19.3041 34.836 20.4565 35.471 21.4543C37.7758 25.0762 39 29.2803 39 33.5734V54.3894C39 55.2772 38.2772 55.9952 37.3894 55.9893L25.4953 55.9105C24.6136 55.9047 23.9028 55.1867 23.9059 54.3051L23.9774 33.5645Z" fill="#536A0D"/>
<rect x="24" y="34" width="12" height="13" fill="#A4A574"/>
</svg>

<svg fill="none" height="64" viewBox="0 0 64 64" width="64" xmlns="http://www.w3.org/2000/svg"><path d="m23.9774 33.5645c.0148-4.2884 1.2447-8.4847 3.5473-12.1025.6383-1.0029.9904-2.1611 1.0182-3.3495l.2392-10.23123c.0102-.43442.3653-.78129.7998-.78129h3.837c.4345 0 .7896.34687.7998.78129l.2394 10.24043c.0277 1.1824.3779 2.3348 1.0129 3.3326 2.3048 3.6219 3.529 7.826 3.529 12.1191v20.816c0 .8878-.7228 1.6058-1.6106 1.5999l-11.8941-.0788c-.8817-.0058-1.5925-.7238-1.5894-1.6054z" fill="#536a0d"/><path d="m24 34h12v13h-12z" fill="#a4a574"/></svg>
